brandFactory_export/3.Masa/Seguridad_3Masa.svg

<?xml version="1.0" encoding="UTF-8"?>
<svg width="24px" height="24px" viewBox="0 0 24 24" version="1.1" xmlns="http://www.w3.org/2000/svg" xmlns:xlink="http://www.w3.org/1999/xlink">
    <title>3.Masa/Seguridad_3Masa</title>
    <g id="Symbols" stroke="none" stroke-width="1" fill="none" fill-rule="evenodd">
        <g id="3.Masa/Seguridad_3Masa" fill="#5CB615" fill-rule="nonzero">
            <path d="M11.6857143,0.0235294118 C14.8722689,0.0235294118 17.4638655,2.45714286 17.4638655,5.4487395 L17.4640014,8.50977123 C18.0689495,8.67400341 18.5799678,8.94976306 18.989916,9.33445378 C19.7327731,10.0268908 20.1159664,11.0453782 20.1327731,12.3596639 L20.1327731,12.3596639 L20.1327731,19.6739496 C20.1159664,20.9848739 19.7294118,22.0033613 18.989916,22.6991597 C18.2806723,23.3647059 17.2722689,23.7008403 15.9915966,23.7008403 L15.9915966,23.7008403 L7.1210084,23.7008403 C5.84033613,23.7008403 4.83193277,23.3613445 4.12605042,22.6957983 C3.38655462,22 3.01008403,20.9781513 3.01008403,19.6638655 L3.01008403,19.6638655 L3.01344538,12.8907563 C3.01344538,12.6442577 3.01195145,12.4963585 3.01095549,12.4251478 L3.01008403,12.3663866 C3.01008403,11.0521008 3.38655462,10.0336134 4.12605042,9.33445378 C4.5409111,8.94329943 5.06026677,8.66476744 5.67797604,8.50158732 L5.6789916,5.4487395 C5.6789916,2.45714286 8.27058824,0.0235294118 11.4571429,0.0235294118 L11.6857143,0.0235294118 Z M11.5781513,15.0420168 C10.9529412,15.0420168 10.4521008,15.2201681 10.0857143,15.5731092 C9.70588235,15.9394958 9.51428571,16.4571429 9.51428571,17.1092437 C9.51428571,17.7613445 9.70588235,18.2789916 10.0857143,18.6453782 C10.4521008,18.9983193 10.9529412,19.1764706 11.5781513,19.1764706 C12.2033613,19.1764706 12.7042017,18.9983193 13.0705882,18.6453782 C13.4537815,18.2789916 13.6420168,17.7613445 13.6420168,17.1092437 C13.6420168,16.4571429 13.4537815,15.9394958 13.0705882,15.5731092 C12.7042017,15.2201681 12.2033613,15.0420168 11.5781513,15.0420168 Z M11.6857143,1.41512605 L11.4571429,1.41512605 C9.03697479,1.41512605 7.07058824,3.22352941 7.07058824,5.4487395 L7.07008403,8.32952941 L7.1210084,8.32941176 L15.9915966,8.32941176 C16.0189676,8.32941176 16.0462166,8.32956766 16.0733433,8.32987931 L16.0722689,5.4487395 C16.0722689,3.22689076 14.1058824,1.41512605 11.6857143,1.41512605 Z" id="Seguridad_3Masa"></path>
        </g>
    </g>
</svg>

<svg width="24" height="24" viewBox="0 0 24 24" xmlns="http://www.w3.org/2000/svg"><path d="M11.686.024c3.186 0 5.778 2.433 5.778 5.425v3.06c.605.165 1.116.44 1.526.825.743.693 1.126 1.711 1.143 3.026v7.314c-.017 1.31-.404 2.33-1.143 3.025-.71.666-1.718 1.002-2.998 1.002H7.12c-1.28 0-2.29-.34-2.995-1.005-.74-.696-1.116-1.718-1.116-3.032l.003-6.773a34.4 34.4 0 00-.002-.466v-.059c0-1.314.376-2.332 1.115-3.032.415-.39.934-.67 1.552-.832l.001-3.053c0-2.992 2.592-5.425 5.778-5.425h.229zm-.108 15.018c-.625 0-1.126.178-1.492.531-.38.366-.572.884-.572 1.536s.192 1.17.572 1.536c.366.353.867.531 1.492.531s1.126-.178 1.493-.53c.383-.367.571-.885.571-1.537 0-.652-.188-1.17-.571-1.536-.367-.353-.868-.531-1.493-.531zm.108-13.627h-.229c-2.42 0-4.386 1.809-4.386 4.034v2.88h9.002V5.45c0-2.222-1.967-4.034-4.387-4.034z" fill="#5CB615" fill-rule="nonzero"/></svg>
